src/images_karasa_jaga_svg/cmd/sc_basicshapes.cube.svg

<svg height="16" viewBox="0 0 16 16" width="16" xmlns="http://www.w3.org/2000/svg" xmlns:xlink="http://www.w3.org/1999/xlink"><linearGradient id="a"><stop offset="0" stop-color="#fff"/><stop offset=".39715832" stop-color="#fff"/><stop offset=".79970485" stop-color="#f1f1f1"/><stop offset=".90234375" stop-color="#eaeaea"/><stop offset="1" stop-color="#dfdfdf"/></linearGradient><linearGradient id="b"><stop offset="0" stop-color="#7c9fcf"/><stop offset=".5" stop-color="#7c9ece"/><stop offset="1" stop-color="#7b9dcf"/></linearGradient><linearGradient id="c" gradientUnits="userSpaceOnUse" x1="8" x2="99.324768" xlink:href="#a" y1="83.612244" y2="85.117722"/><linearGradient id="d" gradientUnits="userSpaceOnUse" x1="120.34511" x2="66.313881" xlink:href="#a" y1="55.898434" y2="55.655792"/><linearGradient id="e" gradientUnits="userSpaceOnUse" x1="7.869126" x2="165.98279" xlink:href="#a" y1="26" y2="28.474874"/><linearGradient id="f" gradientUnits="userSpaceOnUse" x1="80.027344" x2="127.97266" xlink:href="#b" y1="67.999001" y2="67.999001"/><linearGradient id="g" gradientUnits="userSpaceOnUse" x1="-.013672" x2="88.013672" xlink:href="#b" y1="84" y2="84"/><linearGradient id="h" gradientUnits="userSpaceOnUse" x1="5.764889" x2="119.99245" xlink:href="#b" y1="24" y2="24"/><g transform="matrix(.125 0 0 .125 .000854 -.000854)"><path d="m48 .00585938c-2.026961.00011403-3.978211.77014208-5.458984 2.15429682l-34.2421879 31.9999998c-2.0029365 1.873175-7.87228024 9.682865-7.63130495 11.986546.39621795 3.787774 8.58122715 1.846371 13.09028885 1.847439h66.242188c2.120089-.000269 4.15326-.842623 5.652344-2.341797l31.999996-32c5.03356-5.0362662 1.4681-13.64437661-5.65234-13.64648462z" fill="url(#h)"/><path d="m48 8 67.8007.1767767-34.4882 31.8232233h-67.55498z" fill="url(#e)"/><path d="m112 0c-1.47772.0440939 4.39601 5.5629582 4.76248 8.5596198.13735 1.1231394-2.00743 1.4118406-2.39921 1.8036612l-31.999999 32c-1.495197 1.494872-2.335439 3.522414-2.335927 5.636719v72c.0014 3.62738-1.646893 6.32956 1.214554 7.43604 2.739942 1.05949 9.938014.65593 12.394821-1.79932l32.000001-32.000001c1.49521-1.494871 2.33545-3.522414 2.33594-5.636719v-72l.02734-16z" fill="url(#f)"/><path d="m120 16-32 32v72l32-32z" fill="url(#d)"/><path d="m8 39.986328a8.0154365 8.0154365 0 0 0 -8.01367188 8.013672v72a8.0154365 8.0154365 0 0 0 8.01367188 8.01367h72a8.0154365 8.0154365 0 0 0 8.013672-8.01367v-72a8.0154365 8.0154365 0 0 0 -8.013672-8.013672z" fill="url(#g)"/><path d="m8 48h72v72h-72z" fill="url(#c)"/></g></svg>

<?xml version="1.0" encoding="UTF-8" standalone="no"?>
<svg
   xmlns:dc="http://purl.org/dc/elements/1.1/"
   xmlns:cc="http://creativecommons.org/ns#"
   xmlns:rdf="http://www.w3.org/1999/02/22-rdf-syntax-ns#"
   xmlns:svg="http://www.w3.org/2000/svg"
   xmlns="http://www.w3.org/2000/svg"
   xmlns:xlink="http://www.w3.org/1999/xlink"
   xmlns:sodipodi="http://sodipodi.sourceforge.net/DTD/sodipodi-0.dtd"
   xmlns:inkscape="http://www.inkscape.org/namespaces/inkscape"
   height="128"
   viewBox="0 0 128 128"
   width="128"
   version="1.1"
   id="svg31"
   sodipodi:docname="sc_basicshapes.cube.svg"
   inkscape:version="0.92.3 (unknown)"
   inkscape:export-filename="/home/rizmut/Dokumen/Rizmut/Github/libreoffice-style-karasa-jaga/build/images_karasa_jaga/cmd/sc_basicshapes.cube.png"
   inkscape:export-xdpi="12"
   inkscape:export-ydpi="12">
  <metadata
     id="metadata37">
    <rdf:RDF>
      <cc:Work
         rdf:about="">
        <dc:format>image/svg+xml</dc:format>
        <dc:type
           rdf:resource="http://purl.org/dc/dcmitype/StillImage" />
        <dc:title></dc:title>
      </cc:Work>
    </rdf:RDF>
  </metadata>
  <defs
     id="defs35">
    <linearGradient
       id="linearGradient3369">
      <stop
         id="stop3372"
         offset="0"
         style="stop-color:#ffffff;stop-opacity:1;" />
      <stop
         style="stop-color:#ffffff;stop-opacity:1;"
         offset="0.39715832"
         id="stop3374" />
      <stop
         style="stop-color:#f1f1f1;stop-opacity:1;"
         offset="0.79970485"
         id="stop3376" />
      <stop
         id="stop3378"
         offset="0.90234375"
         style="stop-color:#eaeaea;stop-opacity:1;" />
      <stop
         id="stop3384"
         offset="1"
         style="stop-color:#dfdfdf;stop-opacity:1;" />
    </linearGradient>
    <linearGradient
       id="linearGradient7422">
      <stop
         style="stop-color:#7c9fcf;stop-opacity:1"
         offset="0"
         id="stop7424" />
      <stop
         id="stop5348"
         offset="0.5"
         style="stop-color:#7c9ece;stop-opacity:1" />
      <stop
         id="stop7426"
         offset="1"
         style="stop-color:#7b9dcf;stop-opacity:1" />
    </linearGradient>
    <linearGradient
       inkscape:collect="always"
       xlink:href="#linearGradient3369"
       id="linearGradient1483"
       x1="7.9999995"
       y1="80"
       x2="93.788582"
       y2="81.414215"
       gradientUnits="userSpaceOnUse"
       gradientTransform="matrix(1.0645329,0,0,1.0645329,-0.51626296,-1.5503856)" />
    <linearGradient
       inkscape:collect="always"
       xlink:href="#linearGradient3369"
       id="linearGradient1491"
       x1="116.70711"
       y1="59.535534"
       x2="62.675884"
       y2="59.292892"
       gradientUnits="userSpaceOnUse"
       gradientTransform="translate(3.638,-3.6371)" />
    <linearGradient
       inkscape:collect="always"
       xlink:href="#linearGradient3369"
       id="linearGradient842"
       gradientUnits="userSpaceOnUse"
       x1="7.8691263"
       y1="26"
       x2="165.98279"
       y2="28.474874" />
    <linearGradient
       inkscape:collect="always"
       xlink:href="#linearGradient7422"
       id="linearGradient886"
       x1="80.027344"
       y1="67.999001"
       x2="127.97266"
       y2="67.999001"
       gradientUnits="userSpaceOnUse" />
    <linearGradient
       inkscape:collect="always"
       xlink:href="#linearGradient7422"
       id="linearGradient888"
       x1="-0.01367188"
       y1="84"
       x2="88.013672"
       y2="84"
       gradientUnits="userSpaceOnUse" />
    <linearGradient
       inkscape:collect="always"
       xlink:href="#linearGradient7422"
       id="linearGradient890"
       x1="5.7648892"
       y1="24"
       x2="119.99245"
       y2="24"
       gradientUnits="userSpaceOnUse" />
  </defs>
  <sodipodi:namedview
     pagecolor="#ffffff"
     bordercolor="#666666"
     borderopacity="1"
     objecttolerance="10"
     gridtolerance="10"
     guidetolerance="10"
     inkscape:pageopacity="0"
     inkscape:pageshadow="2"
     inkscape:window-width="1364"
     inkscape:window-height="704"
     id="namedview33"
     showgrid="true"
     inkscape:zoom="0.99999999"
     inkscape:cx="20.943073"
     inkscape:cy="134.37748"
     inkscape:window-x="0"
     inkscape:window-y="0"
     inkscape:window-maximized="0"
     inkscape:current-layer="svg31"
     inkscape:snap-global="true">
    <inkscape:grid
       type="xygrid"
       id="grid844"
       spacingx="8"
       spacingy="8"
       empspacing="2" />
  </sodipodi:namedview>
  <linearGradient
     id="a">
    <stop
       offset="0"
       stop-color="#f9f9fa"
       id="stop2" />
    <stop
       offset="1"
       stop-color="#f9f9fa"
       stop-opacity="0"
       id="stop4" />
  </linearGradient>
  <linearGradient
     id="b"
     gradientUnits="userSpaceOnUse"
     x1="42.276669"
     x2="-13.469376"
     xlink:href="#a"
     y1="50.867565"
     y2="104.97279" />
  <linearGradient
     id="c"
     gradientUnits="userSpaceOnUse"
     x1="-1.817377"
     x2="2.172436"
     xlink:href="#a"
     y1="55.003803"
     y2="116.784" />
  <g
     id="g917">
    <path
       sodipodi:nodetypes="cccscccccc"
       inkscape:connector-curvature="0"
       id="path845"
       d="M 48,0.00585938 C 45.973039,0.00597341 44.021789,0.77600146 42.541016,2.1601562 L 8.2988281,34.160156 C 6.2958916,36.033331 0.42654786,43.843021 0.66752315,46.146702 1.0637411,49.934476 9.2487503,47.993073 13.757812,47.994141 H 80 c 2.120089,-2.69e-4 4.15326,-0.842623 5.652344,-2.341797 l 31.999996,-32 C 122.6859,8.6160778 119.12044,0.00796739 112,0.00585938 Z"
       style="opacity:1;fill:url(#linearGradient890);fill-opacity:1;stroke:none;stroke-width:4;stroke-linecap:square;stroke-linejoin:bevel;stroke-miterlimit:4;stroke-dasharray:none;stroke-dashoffset:0;stroke-opacity:1" />
    <path
       style="opacity:1;fill:url(#linearGradient842);fill-opacity:1;stroke:none;stroke-width:4;stroke-linecap:square;stroke-linejoin:bevel;stroke-miterlimit:4;stroke-dasharray:none;stroke-dashoffset:0;stroke-opacity:1"
       d="M 48,8 115.8007,8.1767767 81.3125,40 H 13.75752 Z"
       id="path840"
       inkscape:connector-curvature="0"
       sodipodi:nodetypes="ccccc" />
    <path
       sodipodi:nodetypes="csccccscccccc"
       inkscape:connector-curvature="0"
       id="path849"
       d="m 112,0 c -1.47772,0.0440939 4.39601,5.5629582 4.76248,8.5596198 0.13735,1.1231394 -2.00743,1.4118406 -2.39921,1.8036612 l -31.999999,32 C 80.868074,43.858153 80.027832,45.885695 80.027344,48 v 72 c 0.0014,3.62738 -1.646893,6.32956 1.214554,7.43604 2.739942,1.05949 9.938014,0.65593 12.394821,-1.79932 L 125.63672,93.636719 C 127.13193,92.141848 127.97217,90.114305 127.97266,88 V 16 L 128,0 Z"
       style="opacity:1;fill:url(#linearGradient886);fill-opacity:1;stroke:none;stroke-width:4;stroke-linecap:round;stroke-linejoin:bevel;stroke-miterlimit:4;stroke-dasharray:none;stroke-dashoffset:0;stroke-opacity:1" />
    <path
       sodipodi:nodetypes="ccccc"
       inkscape:connector-curvature="0"
       id="rect833"
       d="M 120,16 88,48 v 72 l 32,-32 z"
       style="opacity:1;fill:url(#linearGradient1491);fill-opacity:1;stroke:none;stroke-width:4;stroke-linecap:round;stroke-linejoin:bevel;stroke-miterlimit:4;stroke-dasharray:none;stroke-dashoffset:0;stroke-opacity:1" />
    <path
       id="path841"
       d="M 8,39.986328 A 8.0154365,8.0154365 0 0 0 -0.01367188,48 v 72 A 8.0154365,8.0154365 0 0 0 8,128.01367 H 80 A 8.0154365,8.0154365 0 0 0 88.013672,120 V 48 A 8.0154365,8.0154365 0 0 0 80,39.986328 Z"
       style="opacity:1;fill:url(#linearGradient888);fill-opacity:1.0;stroke:none;stroke-width:3.8516171;stroke-linecap:round;stroke-linejoin:bevel;stroke-miterlimit:4;stroke-dasharray:none;stroke-dashoffset:0;stroke-opacity:1" />
    <path
       sodipodi:nodetypes="ccccc"
       id="rect852"
       d="m 8,48 h 72 v 72 H 8 Z"
       style="opacity:1;fill:url(#linearGradient1483);fill-opacity:1;stroke:none;stroke-width:3.8516171;stroke-linecap:round;stroke-linejoin:bevel;stroke-miterlimit:4;stroke-dasharray:none;stroke-dashoffset:0;stroke-opacity:1"
       inkscape:connector-curvature="0" />
  </g>
</svg>
